assets/svg/calender-o.svg

<?xml version="1.0" encoding="UTF-8"?>
<svg width="1000px" height="1000px" viewBox="0 0 1000 1000" version="1.1" xmlns="http://www.w3.org/2000/svg" xmlns:xlink="http://www.w3.org/1999/xlink">
    <!-- Generator: sketchtool 52.4 (67378) - http://www.bohemiancoding.com/sketch -->
    <title>calender-o</title>
    <desc>Created with sketchtool.</desc>
    <g id="新版图标" stroke="none" stroke-width="1" fill="none" fill-rule="evenodd">
        <g id="calender-o" fill="#323233" fill-rule="nonzero">
            <g id="直角-自然周-线">
                <path d="M166.666667,222.222222 L166.666667,833.333333 L833.333333,833.333333 L833.333333,222.222222 L166.666667,222.222222 Z M722.222222,166.666667 L833.333333,166.666667 C864.015819,166.666667 888.888889,191.539736 888.888889,222.222222 L888.888889,833.333333 C888.888889,864.015819 864.015819,888.888889 833.333333,888.888889 L166.666667,888.888889 C135.984181,888.888889 111.111111,864.015819 111.111111,833.333333 L111.111111,222.222222 C111.111111,191.539736 135.984181,166.666667 166.666667,166.666667 L277.777778,166.666667 L277.777778,111.111111 L333.333333,111.111111 L333.333333,166.666667 L666.666667,166.666667 L666.666667,111.111111 L722.222222,111.111111 L722.222222,166.666667 Z M166.666667,333.333333 L166.666667,388.888889 L833.333333,388.888889 L833.333333,333.333333 L166.666667,333.333333 Z M277.777778,222.222222 L277.777778,277.777778 L333.333333,277.777778 L333.333333,222.222222 L277.777778,222.222222 Z M666.666667,222.222222 L666.666667,277.777778 L722.222222,277.777778 L722.222222,222.222222 L666.666667,222.222222 Z M488.456242,509.647473 L488.456242,527.425251 L441.511798,527.425251 L441.511798,551.31414 L488.456242,551.31414 L488.456242,571.869696 L434.011798,571.869696 L434.011798,596.869696 L570.400687,596.869696 L570.400687,571.869696 L516.511798,571.869696 L516.511798,551.31414 L562.067353,551.31414 L562.067353,527.425251 L516.511798,527.425251 L516.511798,509.647473 L488.456242,509.647473 Z M610.678464,477.147473 L394.011798,477.147473 L394.011798,589.369696 C393.456242,636.591918 385.678464,675.480807 370.678464,706.036362 L392.900687,726.036362 C412.345131,690.480807 422.345131,644.091918 422.900687,587.147473 L422.900687,503.81414 L581.789575,503.81414 L581.789575,688.81414 C581.789575,694.925251 578.456242,698.258584 571.789575,698.258584 C561.23402,698.258584 550.122909,697.703029 538.178464,696.869696 L545.678464,724.647473 L580.400687,724.647473 C600.400687,724.647473 610.678464,716.036362 610.678464,699.091918 L610.678464,477.147473 Z M441.511798,611.591918 L441.511798,685.203029 L560.122909,685.203029 L560.122909,611.591918 L441.511798,611.591918 Z M532.345131,660.203029 L469.289575,660.203029 L469.289575,635.758584 L532.345131,635.758584 L532.345131,660.203029 Z" id="Combined-Shape"></path>
            </g>
        </g>
    </g>
</svg>

<svg width="1000" height="1000" xmlns="http://www.w3.org/2000/svg"><path d="M166.667 222.222v611.111h666.666v-611.11H166.667zm555.555-55.555h111.111c30.683 0 55.556 24.873 55.556 55.555v611.111c0 30.683-24.873 55.556-55.556 55.556H166.667c-30.683 0-55.556-24.873-55.556-55.556v-611.11c0-30.683 24.873-55.556 55.556-55.556h111.11V111.11h55.556v55.556h333.334V111.11h55.555v55.556zM166.667 333.333v55.556h666.666v-55.556H166.667zm111.11-111.11v55.555h55.556v-55.556h-55.555zm388.89 0v55.555h55.555v-55.556h-55.555zm-178.21 287.424v17.778h-46.945v23.89h46.944v20.555h-54.444v25H570.4v-25h-53.89v-20.556h45.556v-23.889h-45.555v-17.778h-28.056zm122.221-32.5H394.012V589.37c-.556 47.222-8.334 86.11-23.334 116.666l22.223 20c19.444-35.555 29.444-81.944 30-138.889v-83.333H581.79v185c0 6.111-3.334 9.445-10 9.445-10.556 0-21.667-.556-33.612-1.39l7.5 27.778h34.723c20 0 30.277-8.61 30.277-25.555V477.147zM441.512 611.592v73.611h118.61v-73.611h-118.61zm90.833 48.611H469.29v-24.444h63.055v24.444z" fill="#323233" fill-rule="nonzero"/></svg>
